src/svg/16/user_add_16.svg

<?xml version="1.0" encoding="UTF-8"?>
<svg width="16px" height="16px" viewBox="0 0 16 16" version="1.1" xmlns="http://www.w3.org/2000/svg" xmlns:xlink="http://www.w3.org/1999/xlink">
    <!-- Generator: Sketch 50.2 (55047) - http://www.bohemiancoding.com/sketch -->
    <title>user_add_16</title>
    <desc>Created with Sketch.</desc>
    <defs></defs>
    <g id="Page-2" stroke="none" stroke-width="1" fill="none" fill-rule="evenodd">
        <g id="user_add_16">
            <polygon id="Bounds" points="0 0 16 0 16 16 0 16"></polygon>
            <path d="M12.5,5.5 C12.5,4.11875 11.38125,3 10,3 C8.61875,3 7.5,4.11875 7.5,5.5 C7.5,6.88125 8.61875,8 10,8 C11.38125,8 12.5,6.88125 12.5,5.5 Z M3.5,7 L4.75,7 C5.16421356,7 5.5,7.33578644 5.5,7.75 C5.5,8.16421356 5.16421356,8.5 4.75,8.5 L3.5,8.5 L3.5,9.75 C3.5,10.1642136 3.16421356,10.5 2.75,10.5 C2.33578644,10.5 2,10.1642136 2,9.75 L2,8.5 L0.75,8.5 C0.335786438,8.5 5.07265313e-17,8.16421356 0,7.75 C-5.07265313e-17,7.33578644 0.335786438,7 0.75,7 L2,7 L2,5.75 C2,5.33578644 2.33578644,5 2.75,5 C3.16421356,5 3.5,5.33578644 3.5,5.75 L3.5,7 Z M5,11.7692308 C5,9.61538462 8.19732666,9 10,9 C11.8026733,9 15,9.61538462 15,11.7692308 L15,12.20404 C15,12.6436366 14.6436366,13 14.20404,13 L5.79596,13 C5.35636343,13 5,12.6436366 5,12.20404 L5,11.7692308 Z" id="Mask" fill="currentColor"></path>
        </g>
    </g>
</svg>

<svg xmlns="http://www.w3.org/2000/svg" width="16" height="16" fill="none" viewBox="0 0 16 16"><path fill="currentColor" d="M12.5 5.5C12.5 4.1188 11.3813 3 10 3 8.6188 3 7.5 4.1188 7.5 5.5S8.6188 8 10 8c1.3813 0 2.5-1.1188 2.5-2.5ZM10 9c1.8027 0 5 .6154 5 2.7692v.4348a.796.796 0 0 1-.796.796H5.796A.796.796 0 0 1 5 12.204v-.4348C5 9.6154 8.1973 9 10 9ZM2.75 5a.75.75 0 0 1 .75.75V7h1.25a.75.75 0 0 1 0 1.5H3.5v1.25a.75.75 0 0 1-1.5 0V8.5H.75a.75.75 0 0 1 0-1.5H2V5.75A.75.75 0 0 1 2.75 5Z"/></svg>
